svgs/tidal.svg

<svg xmlns="http://www.w3.org/2000/svg" width="192" height="192" fill="none" xmlns:v="https://vecta.io/nano"><path d="M71 81l25-25 25 25m-50 0l25 25M71 81l-25 25-25-25 25-25 25 25zm25 25l25-25m-25 25l-25 25 25 25 25-25-25-25zm25-25l25-25 25 25-25 25-25-25z" stroke="#000" stroke-width="12" stroke-linecap="round" stroke-linejoin="round"/></svg>

<svg width="192" height="192" viewBox="0 0 192 192" fill="none" xmlns="http://www.w3.org/2000/svg">
<path d="M71 81L96 56L121 81M71 81L96 106M71 81L46 106L21 81L46 56L71 81ZM96 106L121 81M96 106L71 131L96 156L121 131L96 106ZM121 81L146 56L171 81L146 106L121 81Z" stroke="black" stroke-width="12" stroke-linecap="round" stroke-linejoin="round"/>
</svg>
